Numix-Light/16/status/indicator-keyboard-Uz-2.svg

<?xml version="1.0" encoding="UTF-8" standalone="no"?>
<svg
   xmlns:dc="http://purl.org/dc/elements/1.1/"
   xmlns:cc="http://creativecommons.org/ns#"
   xmlns:rdf="http://www.w3.org/1999/02/22-rdf-syntax-ns#"
   xmlns:svg="http://www.w3.org/2000/svg"
   xmlns="http://www.w3.org/2000/svg"
   xmlns:sodipodi="http://sodipodi.sourceforge.net/DTD/sodipodi-0.dtd"
   xmlns:inkscape="http://www.inkscape.org/namespaces/inkscape"
   viewBox="0 0 16 16"
   id="svg2"
   version="1.1"
   inkscape:version="0.91 r13725"
   sodipodi:docname="indicator-keyboard-Uz-2.svg">
  <metadata
     id="metadata14">
    <rdf:RDF>
      <cc:Work
         rdf:about="">
        <dc:format>image/svg+xml</dc:format>
        <dc:type
           rdf:resource="http://purl.org/dc/dcmitype/StillImage" />
      </cc:Work>
    </rdf:RDF>
  </metadata>
  <defs
     id="defs12" />
  <sodipodi:namedview
     pagecolor="#ffffff"
     bordercolor="#666666"
     borderopacity="1"
     objecttolerance="10"
     gridtolerance="10"
     guidetolerance="10"
     inkscape:pageopacity="0"
     inkscape:pageshadow="2"
     inkscape:window-width="640"
     inkscape:window-height="480"
     id="namedview10"
     showgrid="false"
     inkscape:zoom="14.75"
     inkscape:cx="8"
     inkscape:cy="8"
     inkscape:window-x="65"
     inkscape:window-y="24"
     inkscape:window-maximized="0"
     inkscape:current-layer="svg2" />
  <path
     style="fill:#353535;fill-opacity:1"
     d="M 1.5996094 0 C 0.71320937 2.9605947e-16 0 0.71320937 0 1.5996094 L 0 14.400391 C 2.9605947e-16 15.286791 0.71320937 16 1.5996094 16 L 14.400391 16 C 15.286791 16 16 15.286791 16 14.400391 L 16 1.5996094 C 16 0.71320937 15.286791 0 14.400391 0 L 1.5996094 0 z M 1.9160156 4.859375 L 2.5273438 4.859375 L 2.5273438 8.7011719 C 2.5273438 9.0431719 2.5665313 9.34175 2.6445312 9.59375 C 2.7285312 9.83975 2.8423281 10.043078 2.9863281 10.205078 C 3.1303281 10.367078 3.3057656 10.486453 3.5097656 10.564453 C 3.7137656 10.642453 3.9413594 10.681641 4.1933594 10.681641 C 4.4453594 10.681641 4.6729531 10.642453 4.8769531 10.564453 C 5.0809531 10.486453 5.2544375 10.367078 5.3984375 10.205078 C 5.5424375 10.043078 5.6544219 9.83975 5.7324219 9.59375 C 5.8164219 9.34175 5.8574219 9.0431719 5.8574219 8.7011719 L 5.8574219 4.859375 L 6.4707031 4.859375 L 6.4707031 8.7832031 C 6.4707031 9.1252031 6.42775 9.4460938 6.34375 9.7460938 C 6.26575 10.040094 6.1370313 10.297531 5.9570312 10.519531 C 5.7770312 10.741531 5.5400937 10.916969 5.2460938 11.042969 C 4.9580937 11.168969 4.6073594 11.230469 4.1933594 11.230469 C 3.7793594 11.230469 3.4248594 11.168969 3.1308594 11.042969 C 2.8428594 10.916969 2.6096875 10.741531 2.4296875 10.519531 C 2.2496875 10.297531 2.1172031 10.040094 2.0332031 9.7460938 C 1.9552031 9.4460938 1.9160156 9.1252031 1.9160156 8.7832031 L 1.9160156 4.859375 z M 7.65625 6.4433594 L 10.84375 6.4433594 L 10.84375 6.9199219 C 10.70575 7.0759219 10.524734 7.2923594 10.302734 7.5683594 C 10.080735 7.8443594 9.8437969 8.1521406 9.5917969 8.4941406 C 9.3397969 8.8301406 9.0917031 9.1846406 8.8457031 9.5566406 C 8.5997031 9.9226408 8.3832656 10.271563 8.1972656 10.601562 L 10.923828 10.601562 L 10.923828 11.095703 L 7.5214844 11.095703 L 7.5214844 10.673828 C 7.6774844 10.379828 7.8696563 10.055172 8.0976562 9.7011719 C 8.3316563 9.3471719 8.5723594 8.99825 8.8183594 8.65625 C 9.0643594 8.30825 9.3050625 7.9855469 9.5390625 7.6855469 C 9.7730625 7.3795469 9.9708126 7.1295 10.132812 6.9375 L 7.65625 6.9375 L 7.65625 6.4433594 z M 12.755859 8.7539062 C 13.149759 8.7539062 13.445631 8.851875 13.644531 9.046875 C 13.843431 9.237975 13.943359 9.5044563 13.943359 9.8476562 C 13.943359 9.9997563 13.915928 10.14475 13.861328 10.28125 C 13.806728 10.41385 13.732272 10.543169 13.638672 10.667969 C 13.548972 10.792769 13.447078 10.912297 13.330078 11.029297 C 13.213078 11.146297 13.093556 11.263859 12.972656 11.380859 C 12.871256 11.478359 12.771328 11.578288 12.673828 11.679688 C 12.580228 11.777188 12.494016 11.877116 12.416016 11.978516 C 12.341916 12.076016 12.281175 12.172031 12.234375 12.269531 C 12.191475 12.363131 12.169922 12.457181 12.169922 12.550781 L 12.169922 12.5625 L 14.083984 12.5625 L 14.083984 12.896484 L 11.75 12.896484 C 11.75 12.888684 11.748074 12.874969 11.744141 12.855469 L 11.744141 12.755859 C 11.744141 12.572559 11.77745 12.402094 11.84375 12.246094 C 11.91005 12.086194 11.994303 11.937275 12.095703 11.796875 C 12.201003 11.656475 12.314653 11.525197 12.439453 11.404297 C 12.568153 11.283397 12.691594 11.165834 12.808594 11.052734 C 12.906094 10.959134 12.998184 10.869003 13.083984 10.783203 C 13.173684 10.693503 13.252059 10.603366 13.318359 10.509766 C 13.384659 10.416166 13.435609 10.316237 13.474609 10.210938 C 13.513609 10.105638 13.533203 9.9900344 13.533203 9.8652344 C 13.533203 9.5922344 13.4607 9.39825 13.3125 9.28125 C 13.1682 9.16035 12.984019 9.0996094 12.761719 9.0996094 C 12.636919 9.0996094 12.525234 9.1152844 12.427734 9.1464844 C 12.330234 9.1776844 12.244022 9.2149125 12.169922 9.2578125 C 12.099722 9.2968125 12.040934 9.3379594 11.990234 9.3808594 C 11.939534 9.4237594 11.902306 9.4570688 11.878906 9.4804688 L 11.679688 9.2167969 C 11.703088 9.1894969 11.744234 9.1503094 11.802734 9.0996094 C 11.865134 9.0450094 11.94155 8.9921062 12.03125 8.9414062 C 12.12485 8.8907063 12.230662 8.8476 12.351562 8.8125 C 12.472462 8.7735 12.607659 8.7539063 12.755859 8.7539062 z "
     id="path4" />
</svg>

<svg xmlns="http://www.w3.org/2000/svg" viewBox="0 0 16 16">
 <path d="m 1.6 0 c -0.886 0 -1.6 0.713 -1.6 1.6 l 0 12.801 c 0 0.886 0.713 1.6 1.6 1.6 l 12.801 0 c 0.886 0 1.6 -0.713 1.6 -1.6 l 0 -12.801 c 0 -0.886 -0.713 -1.6 -1.6 -1.6 l -12.801 0 z m 0.316 4.859 l 0.611 0 l 0 3.842 c 0 0.342 0.039 0.641 0.117 0.893 c 0.084 0.246 0.198 0.449 0.342 0.611 c 0.144 0.162 0.319 0.281 0.523 0.359 c 0.204 0.078 0.432 0.117 0.684 0.117 c 0.252 0 0.48 -0.039 0.684 -0.117 c 0.204 -0.078 0.377 -0.197 0.521 -0.359 c 0.144 -0.162 0.256 -0.365 0.334 -0.611 c 0.084 -0.252 0.125 -0.551 0.125 -0.893 l 0 -3.842 l 0.613 0 l 0 3.924 c 0 0.342 -0.043 0.663 -0.127 0.963 c -0.078 0.294 -0.207 0.551 -0.387 0.773 c -0.18 0.222 -0.417 0.397 -0.711 0.523 c -0.288 0.126 -0.639 0.188 -1.053 0.188 c -0.414 0 -0.769 -0.061 -1.063 -0.188 c -0.288 -0.126 -0.521 -0.301 -0.701 -0.523 c -0.18 -0.222 -0.312 -0.479 -0.396 -0.773 c -0.078 -0.3 -0.117 -0.621 -0.117 -0.963 l 0 -3.924 z m 5.74 1.584 l 3.188 0 l 0 0.477 c -0.138 0.156 -0.319 0.372 -0.541 0.648 c -0.222 0.276 -0.459 0.584 -0.711 0.926 c -0.252 0.336 -0.5 0.691 -0.746 1.063 c -0.246 0.366 -0.462 0.715 -0.648 1.045 l 2.727 0 l 0 0.494 l -3.402 0 l 0 -0.422 c 0.156 -0.294 0.348 -0.619 0.576 -0.973 c 0.234 -0.354 0.475 -0.703 0.721 -1.045 c 0.246 -0.348 0.487 -0.671 0.721 -0.971 c 0.234 -0.306 0.432 -0.556 0.594 -0.748 l -2.477 0 l 0 -0.494 z m 5.1 2.311 c 0.394 0 0.69 0.098 0.889 0.293 c 0.199 0.191 0.299 0.458 0.299 0.801 c 0 0.152 -0.027 0.297 -0.082 0.434 c -0.055 0.133 -0.129 0.262 -0.223 0.387 c -0.09 0.125 -0.192 0.244 -0.309 0.361 c -0.117 0.117 -0.237 0.235 -0.357 0.352 c -0.101 0.098 -0.201 0.197 -0.299 0.299 c -0.094 0.098 -0.18 0.197 -0.258 0.299 c -0.074 0.097 -0.135 0.194 -0.182 0.291 c -0.043 0.094 -0.064 0.188 -0.064 0.281 l 0 0.012 l 1.914 0 l 0 0.334 l -2.334 0 c 0 -0.008 -0.002 -0.022 -0.006 -0.041 l 0 -0.1 c 0 -0.183 0.033 -0.354 0.1 -0.51 c 0.066 -0.16 0.151 -0.309 0.252 -0.449 c 0.105 -0.14 0.219 -0.272 0.344 -0.393 c 0.129 -0.121 0.252 -0.238 0.369 -0.352 c 0.098 -0.094 0.19 -0.184 0.275 -0.27 c 0.09 -0.09 0.168 -0.18 0.234 -0.273 c 0.066 -0.094 0.117 -0.194 0.156 -0.299 c 0.039 -0.105 0.059 -0.221 0.059 -0.346 c 0 -0.273 -0.073 -0.467 -0.221 -0.584 c -0.144 -0.121 -0.328 -0.182 -0.551 -0.182 c -0.125 0 -0.236 0.016 -0.334 0.047 c -0.097 0.031 -0.184 0.068 -0.258 0.111 c -0.07 0.039 -0.129 0.08 -0.18 0.123 c -0.051 0.043 -0.088 0.076 -0.111 0.1 l -0.199 -0.264 c 0.023 -0.027 0.065 -0.066 0.123 -0.117 c 0.062 -0.055 0.139 -0.108 0.229 -0.158 c 0.094 -0.051 0.199 -0.094 0.32 -0.129 c 0.121 -0.039 0.256 -0.059 0.404 -0.059 z" style="fill:#353535;fill-opacity:1"/>
</svg>
